src/pos-icons/vector-difference-ab.svg

<svg height="24" viewBox="0 0 24 24" width="24" xmlns="http://www.w3.org/2000/svg"><path d="m3 1c-1.11 0-2 .89-2 2v2h2v-2h2v-2zm4 0v2h3v-2zm5 0v2h2v2h2v-2c0-1.11-.89-2-2-2zm-11 6v3h2v-3zm13 0v7c-2.33 0-7 0-7 0v6c0 1.11.89 2 2 2h11c1.11 0 2-.89 2-2v-11c0-1.11-.89-2-2-2-2 0-6 0-6 0m2 2h4v11h-11v-4h5c1.11 0 2-.89 2-2zm-15 3v2c0 1.11.89 2 2 2h2v-2h-2v-2z"/></svg>

<?xml version="1.0" encoding="UTF-8"?><!DOCTYPE svg PUBLIC "-//W3C//DTD SVG 1.1//EN" "http://www.w3.org/Graphics/SVG/1.1/DTD/svg11.dtd"><svg xmlns="http://www.w3.org/2000/svg" xmlns:xlink="http://www.w3.org/1999/xlink" version="1.1" id="mdi-vector-difference-ab" width="24" height="24" viewBox="0 0 24 24"><path d="M3,1C1.89,1 1,1.89 1,3V5H3V3H5V1H3M7,1V3H10V1H7M12,1V3H14V5H16V3C16,1.89 15.11,1 14,1H12M1,7V10H3V7H1M14,7C14,7 14,11.67 14,14C11.67,14 7,14 7,14C7,14 7,18 7,20C7,21.11 7.89,22 9,22H20C21.11,22 22,21.11 22,20V9C22,7.89 21.11,7 20,7C18,7 14,7 14,7M16,9H20V20H9V16H14C15.11,16 16,15.11 16,14V9M1,12V14C1,15.11 1.89,16 3,16H5V14H3V12H1Z" /></svg>
